!!!!SEGMENT: pl-kk--kk-i-382--050_anonim-piesn-do-p-jezusa-ukrzyzowanego.krn
!!!id: 18xx:1552
!!!COM: Anonim
!!!OTL: Pieśń do P Jezusa ukrzyżowanego
!!!PDT:
!!!SMS-siglum: PL-Kk
!!!SMS-shelfmark: Kk.I.382
!!!NIFC-rismID: 1001140640
!!!URL-scan: http://repozytorium.nifc.pl/skany/pl-kk-nut--i-382
!!!ONB-nifc: UWAGA: obsada: S (T 1), A (B 1), T 2, B 2; S (T 1): skan 0055; A (B 1): skan 0212; T 2: skan 0127; B 2: skan 0258
!!!SMS-variant:
!!!SMS-altvar:
**kern	**text	**text	**kern	**text	**text	**kern	**text	**text	**kern	**text	**text
*part4	*part4	*part4	*part3	*part3	*part3	*part2	*part2	*part2	*part1	*part1	*part1
*staff4	*staff4	*staff4	*staff3	*staff3	*staff3	*staff2	*staff2	*staff2	*staff1	*staff1	*staff1
*I"Basso II	*verse1	*verse2	*I"Tenore II	*verse1	*verse2	*I"Alto vel Basso I	*verse1	*verse2	*I"Soprano vel Tenore I.	*verse1	*verse2
*I'B 2	*	*	*I'T 2	*	*	*I'A (B 1)	*	*	*I'S (T 1)	*	*
*clefF4	*	*	*clefG2	*	*	*clefF4	*	*	*clefG2	*	*
*k[f#]	*	*	*k[f#]	*	*	*k[f#]	*	*	*k[f#]	*	*
*M4/4	*	*	*M4/4	*	*	*M4/4	*	*	*M4/4	*	*
*met(c)	*	*	*met(c)	*	*	*met(c)	*	*	*met(c)	*	*
=1	=1	=1	=1	=1	=1	=1	=1	=1	=1	=1	=1
*2\right	*	*	*2\right	*	*	*2\right	*	*	*2\right	*	*
!LO:TX:a:i:t=Pieśń do P. Jezusa ukrzyżowanego w katedrze krakows.	!	!	!LO:TX:a:i:t=Pieśń do Pana Jezusa ukrzyżowango w katedrze krak&colon;	!	!	!LO:TX:a:i:t=Do Pana Jezusa	!	!	!LO:TX:a:i:t=Do Pana Jezusa / na Wawelu	!	!
!LO:TX:a:i:t=harm. Rychling.	!	!	!LO:TX:a:i:t=przez W. Rychlinga	!	!	!LO:TX:a:i:t=p. W. Richlinga	!	!	!LO:TX:a:i:t=p. W. Richlinga	!	!
!LO:TX:t=P:problem:all\right:global	!	!	!LO:TX:t=P:problem:all/left or middle:global	!	!	!LO:TX:t=P:problem:all\right:global	!	!	!LO:TX:t=P:problem:all\right:global	!	!
!	!	!	!LO:TX:t=P:problem:all\right:global	!	!	!LO:TX:t=P:problem:all/left:global	!	!	!LO:TX:t=P:problem:all/left or middle:global	!	!
2E\	O	Ty	2g/	O	Ty	2E\	O	Ty	2b\	O	Ty
4E\	Chry-	coś	4g/	Chri-	cos	4E\	Chry-	coś	4cc\	Chry-	coś
4E\	-ste	prze-	4g/	-ste	prze-	4E\	-ste	prze-	4b\	-ste	prze-
=2	=2	=2	=2	=2	=2	=2	=2	=2	=2	=2	=2
!	!	!	!LO:TX:t=P:problem:\right	!	!	!	!	!	!	!	!
2D\	pa-	-mó-	2a/	Pa-	-mó-	2F#X\	Pa-	-mó-	2dd\	pa-	-mó-
2D\	-nie	-wił	2f#X/	-nie	-wił	2D\	-nie	-wił,	2a/	-nie	-wił
=3	=3	=3	=3	=3	=3	=3	=3	=3	=3	=3	=3
4AA/	za	nieg-	4a/	za	nie-	4E\	za	nie-	4cc\	za	nie-
4AA/	za-	-dyś	4g/	za-	-gdyś	4E\	za-	-gdyś	4cc\	za-	-gdys
4.BB/	-sło-	do	4.f#X/	-sło-	do	4.D#X\	-sło-	do	4.b\	-sło-	do
8BB/	-ną	nie-	8f#/	-ną	nie-	8D#\	-ną	nie-	8a/	-ną	nie-
!	!	!	!	!	!	!LO:LB:g=original	!	!	!	!	!
=4	=4	=4	=4	=4	=4	=4	=4	=4	=4	=4	=4
2C/	czar-	-wias-	2f#X/	czar-	-wia-	2D#X\	czar-	-wia-	2a/	czar-	-wia-
4C/	-ną	-ty	4e/	-ną	-sty	4E\	-ną	-sty	4g/	-ną	-sty
4r	.	.	4r	.	.	4r	.	.	4r	.	.
!LO:LB:g=original	!	!	!LO:LB:g=original	!	!	!	!	!	!LO:LB:g=original	!	!
=5	=5	=5	=5	=5	=5	=5	=5	=5	=5	=5	=5
!	!	!	!LO:TX:a:t=g	!	!	!	!	!	!	!	!
2C/	To-	Kie-	2g/	To-	Kie-	2E\	To-	Kie-	2cc\	To-	Kie,-
4C/	-bie	-dy	4g/	-bie	-dy	4E\	-bie	-dy	4g/	-bie	-dy
!LO:TX:b:t=P:problem:znak "+" pod kreską taktową	!	!	!LO:TX:b:t=P:problem:znak "+" pod kreską taktową	!	!	!LO:TX:b:t=P:problem:znak "+" pod kreską taktową	!	!	!LO:TX:b:t=P:problem:znak "+" pod kreską taktową	!	!
4C/	się	koń-	4f#X/	się	Koń-	4E-X\	się	Koń-	4a/	się	Koń-
=6	=6	=6	=6	=6	=6	=6	=6	=6	=6	=6	=6
2GG/	ko-	-czy-	2g/	Ko-	-czy-	2D\	Ko-	-czy-	2b\	Ko-	-czy-
2G\	-rzem	-ły	2b\	-rzem	-li,	2G\	-rzem	-li,	2dd\	-rzem	-li,
=7	=7	=7	=7	=7	=7	=7	=7	=7	=7	=7	=7
4E\	z ża-	Kró-	4g/	z za-	Kró-	4G\	z ża-	Kró-	4dd\	z za-	Kró-
4E\	-łoś-	-lo-	4g/	-łoś-	-lo-	4G\	-łoś-	-lo-	4cc\	-łoś-	-lo-
4E\	-cią	-wa-	4g/	-cią	-wa-	4G\	-cią	-wa-	4b\	-cią	-wa-
4C/	nie	-nie	4a/	nie	-nie	4E\	nie	-nie	4a/	nie	-nie
!	!	!	!	!	!	!LO:LB:g=original	!	!	!	!	!
=8	=8	=8	=8	=8	=8	=8	=8	=8	=8	=8	=8
2BB/	mar-	Pia-	2f#X/	mar-	Pia-	4E\	mar-	Pia-	2b\	mar-	Pia-
.	.	.	.	.	.	8D#X\L	.	.	.	.	.
.	.	.	.	.	.	8C#X\J	.	.	.	.	.
2BB/	-ną	-sły	2f#/	-ną	-sty	2D#\	-ną	-sty	2b\	-ną	-sty
!	!	!	!LO:PB:g=original	!	!	!	!	!	!	!	!
=9	=9	=9	=9	=9	=9	=9	=9	=9	=9	=9	=9
2E\	Do	Przed	2g#X/	Do	Przed	2E\	Do	Przed	2b\	do	Przed
4AA/	Krzy-	To-	4a/	Krzy-	To-	4E\	Krzy-	To-	4cc\	Krzy-	To-
4BB/	-ża	-bą	4g#/	-ża	-bą	4D\	-ża	-bą	4b\	-ża	-bą
!LO:LB:g=original	!	!	!	!	!	!	!	!	!LO:LB:g=original	!	!
=10	=10	=10	=10	=10	=10	=10	=10	=10	=10	=10	=10
2C/	Twe-	Krzy-	2a/	Twe-	Krzy-	2E\	Twe-	Krzy-	2a/	twe-	Krzy-
2BB/	-go	-żem	2f#X/	-go	-żem	2D#X\	-go	-żem	2b\	-go	-zem
=11	=11	=11	=11	=11	=11	=11	=11	=11	=11	=11	=11
2C/	wie-	pa-	2e/	wier-	pa-	2E\	wier-	pa-	2g/	wie-	pa-
2AA/	-rny	-da	2f#X/	-ny	-da	2C/	-ny	-da	2a/	-rzy	-da,
!	!	!	!	!	!	!LO:LB:g=original	!	!	!	!	!
=12	=12	=12	=12	=12	=12	=12	=12	=12	=12	=12	=12
4.GG/	na-	wszy-	4.g/	na-	wszy-	4.D\	na-	wszy-	4.b\	na-	wszys-
8GG/	-ród	-stek	8g/	-ród	-stek	8D\	-ród	-stek	8b\	-ród	-tek,
!LO:TX:b:t=P:problem:znak "+" pod kreską taktową	!	!	!LO:TX:b:t=P:problem:znak "+" pod kreską taktową	!	!	!LO:TX:b:t=P:problem:znak "+" pod kreską taktową	!	!	!LO:TX:b:t=P:problem:znak "+" pod kreską taktową	!	!
2GG/	zbliż	lud	2g/	zbliż	lud	2D\	zbliż	lud	2b\	zbliz	lud
=13	=13	=13	=13	=13	=13	=13	=13	=13	=13	=13	=13
2G\	Daj	daj	2b\	Daj	Daj	2G\	Daj	Daj	2dd\	Daj	Daj
4D\	ła-	znak	4a/	la-	znak	4F#X\	ła-	znak	4dd\	ła-	znak
4D\	-skę	Twej	4a/	-skę	Twej	4F#\	-skę	Twej	4cc\	-skę	Twej
!	!	!	!LO:LB:g=original	!	!	!	!	!	!	!	!
=14	=14	=14	=14	=14	=14	=14	=14	=14	=14	=14	=14
2E\	Pa-	ła-	2g/	Pa-	la-	2G\	Pa-	ła-	2b\	Pa-	la-
2GG/	-nie	-ski	2b\	-nie	-ski,	2G\	-nie	-ski,	2ee\	-nie	-ski,
!	!	!	!	!	!	!	!	!	!LO:LB:g=original	!	!
=15	=15	=15	=15	=15	=15	=15	=15	=15	=15	=15	=15
2GG#X/	w Krzy-	niech	2b\	w Krzy-	niech	2Fn\	w Krzy-	niech	2dd\	w Krzy-	niech
2AA/	-żu	się	2a/	-żu	się	2E\	-żu	się	2cc#X\	-żu	się
!LO:LB:g=original	!	!	!	!	!	!LO:LB:g=original	!	!	!	!	!
=16	=16	=16	=16	=16	=16	=16	=16	=16	=16	=16	=16
4D\	i	sta-	4a/	i,	sta-	4F#X\	i	sta-	4dd\	i,	sta-
4D\	przez	-nie	4g/	przez	-nie	4G\	przez	-nie	4b\	przez	-nie
2D\	Krzyż	cud	2f#/	Krzyz	cud	2D\	Krzyż	cud	2a/	Krzyż	cud
=17	=17	=17	=17	=17	=17	=17	=17	=17	=17	=17	=17
2D\	Przyjm	Bo	2fn/	Przyjm	Bo	2D\	Przyjm	Bo	2a/	Przyjm	Bo
4D\	du-	my	4f/	du-	my	4D\	Du-	my	4a/	du-	my
!	!	!	!	!	!	!LO:TX:a:t=P:problem:kreska taktowa dopisana niebieską kredką	!	!	!	!	!
4D\	-sze	nie	4f/	-sze	nie	4D\	-sze	nie	4b\	-sze	nie
!	!	!	!LO:LB:g=original	!	!	!	!	!	!	!	!
=18	=18	=18	=18	=18	=18	=18	=18	=18	=18	=18	=18
2AA/	czy-	lu-	4f#/	czy-	lu-	2A\	czy-	lu-	2cc\	czy-	lu-
.	.	.	8e/L	.	.	.	.	.	.	.	.
.	.	.	8d#X/J	.	.	.	.	.	.	.	.
2AA/	-ste	-dem	2e/	-ste	-dem	2AA/	-ste	-dem	2cc\	-ste	-dem
=19	=19	=19	=19	=19	=19	=19	=19	=19	=19	=19	=19
2C/	o	tyl-	2e-X/	O	Tyl,-	2C/	o	Tyl-	2g/	o	tyl-
4C/	Pa-	-ko	4e-/	Pa-	-ko	4C/	Pa-	-ko	4g/	Pa-	-ko
!LO:TX:b:t=P:problem:znak "+" pod kreską taktową	!	!	!LO:TX:b:t=P:problem:znak "+" pod kreską taktową	!	!	!LO:TX:b:t=P:problem:znak "+" pod kreską taktową	!	!	!LO:TX:b:t=P:problem:znak "+" pod nutą	!	!
4C/	-nie	Twym	4e-/	-nie	twym	4C/	-nie	twym	4a/	-nie	twym
!	!	!	!	!	!	!LO:LB:g=original	!	!	!LO:LB:g=original	!	!
=20	=20	=20	=20	=20	=20	=20	=20	=20	=20	=20	=20
2GG/	Chrys-	cu-	4.d/	Chry-	cu-	2G\	Chry-	cu-	2b\	Chry-	cu-
.	.	.	8c#X/	[[ste]]-	.	.	.	.	.	.	.
2GG/	-te	-dem	2d/	-ste	-dem	2G\	-ste	-dem	2b\	-ste	-dem
=21	=21	=21	=21	=21	=21	=21	=21	=21	=21	=21	=21
2GG#X/	w Krzy-	zło-	2b\	W Krzy-	zło-	2E\	W Krzy-	zło-	2ee\	W Krzy-	Zło-
2AA/	-żu	-żym	2a/	-zu	-żym	2E\	-żu	-żym	2cc\	-żu	-żym
!LO:LB:g=original	!	!	!LO:LB:g=original	!	!	!	!	!	!	!	!
=22	=22	=22	=22	=22	=22	=22	=22	=22	=22	=22	=22
!LO:TX:t=P:problem:tekst drugiej zwrotki takcie 22 dopisany obok	!	!	!	!	!	!	!	!	!	!	!
4E\	i	cię-	4g#X/	i,	cięż-	4E\	i,	cięż-	4b\	i	cięz-
4AA/	przez	-żki	4a/	przez	-ki,	4E\	przez	-ki	4cc\	przez	-ki
2E;>\	Krzyż.	trud.	2g#/	Krzyż.	[[K]] trud.	2E\	Krzyż.	trud.	2b\	Krzyż	trud.
==	==	==	==	==	==	==	==	==	==	==	==
*-	*-	*-	*-	*-	*-	*-	*-	*-	*-	*-	*-
!!!system-decoration: [(s1,s2,s3,s4)]
!!!RDF**kern: > = above
!!!RDF**kern: < = below
!!!ENC: Andrzej Gręziak
!!!END: 2021-01-30
!!!EED: Mateusz Mrugas
!!!EST: 2021-02-16
